!!!OTL: Renmin de jiefang
!!!ARE: Asia, China,ÿLiaoning Chifeng
!! III, 222
!!!SCT: C1733
!!!YEM: Copyright 1995, estate of Helmut Schaffrath.
**kern
*ICvox
*Ivox
*M2/4
*k[b-e-]
*B-:
{8ccc
8ccc
8dd
8ff
=1
2gg}
=2
{8ccc
8ccc
8dd
8ff
=3
2gg}
=4
{8ccc
8ccc
8bb-
8ccc
=5
8ddd
8fff
4ddd
=6
[2ccc
=7
2ccc]}
=8
{8bb-
8ddd
8ccc
8aa
=9
4.gg
8aa}
=10
{8ccc
8ccc
8dd
8ff
=11
2gg}
=12
{8ccc
8ccc
8bb-
8ccc
=13
8bb-
8ccc
8fff
8ddd
=14
[2ccc
=15
2ccc]}
=16
{8ddd
8ggg
8fff
8ddd
=17
8ccc
8fff
8ddd
8ccc
=18
8bb-
8gg
8bb-
8ddd
=19
2ccc}
=20
{8fff
8ddd
4ccc
=21
8aa
8gg
4ff}
=22
{8gg
8ccc
8bb-
8gg
=23
4ff
8gg
8gg
=24
8bb-
8dd
4cc}
=25
{2r
=26
8ccc
8ccc
8fff
8ddd
=27
[2ccc
=28
2ccc]}
==
!!!AGN: Xiaodiao
!!!AMT: simple duple
!!!AIN: vox
!!!EED: Helmut Schaffrath
!!!EEV: 1.0
*-
!!!ONB: Tied note syntax fixed by Craig Sapp, 2004/05/03/
